X: 54
I: linebreak $
T: Kemp's Jig
T: round for three couples
P: 
C: 
N: 
M: 6/4
L: 1/8
K: F major
 |: "Dm"d3ed2 d3ed2 | "C"c3de2 e3dc2 | "Dm"d3ef2 e4d2 | "Amm"c6 A6 | "C"d3ed2 d3ed2 | "Dm"c3de2 e3dc2 | 
"Am2.m"d3ef2 e4d2 | "C"c6 A6 | "F"F6 G6 | "Dm C"A12 | "F"F6 G6 | "Dm"A12 | 
"Dm"F4E2 F4G2 | "A"A4A2 A3GF2 | "Dm"E4D2 E3FE2 | D12 :| 

